X:1
T:Sleep, Baby, Sleep
T:North German Lullaby
T:Sleep, Baby, Sleep
T:Public Domain
C:North German Lullaby
Z:Public Domain
%%score ( 1 2 ) 3
L:1/8
M:4/4
K:F
V:1 treble 
V:2 treble 
V:3 bass 
V:1
 [FA]4 [EG]2 [EG]2 | F6 C2 | [FA]2 [FA]2 [EG]2 [EG]2 | F6 C2 | [GB]2 [GB]2 [EG]2 [EG]2 | %5
 [Fc]2 [Fc]2 [FA]2 [FA]2 | [GB]2 [GB]2 [EG]2 [EG]2 | [Fc]2 [Fc]2 [FA]4 | [FA]4 [EG]2 [EG]2 | %9
 F6 z2 | [FA]4 [EG]2 [EG]2 | F8 |] %12
V:2
 x8 | F6 C2 | x8 | F6 C2 | x8 | x8 | x8 | x8 | x8 | F6 x2 | x8 | F8 |] %12
V:3
 [F,C]4 [C,B,]2 [C,B,]2 | [F,A,]6 [F,A,]2 | [F,C]2 [F,C]2 [C,B,]2 [C,B,]2 | [F,A,]6 [F,A,]2 | %4
 [E,C]2 [E,C]2 [C,B,]2 [C,B,]2 | [F,A,]2 [F,A,]2 [F,C]2 [F,C]2 | [E,C]2 [E,C]2 [C,B,]2 [C,B,]2 | %7
 [F,A,]2 [F,A,]2 [F,C]4 | [C,C]4 [C,B,]2 [C,B,]2 | [F,A,]6 z2 | [C,C]4 [C,C]2 [C,B,]2 | [F,A,]8 |] %12

